X:27
T: D' Kttche sollt op d' Kirmes goen, S. 38
N: R0051
O: Luxemburg
S: D'Fraen um Kanddaaf an der aler Zeit, Luxemburg 1929]
R: ??, Walzer]
M: 3/4
L: 1/8
K: G
 | G2G2GA | B2B2B2 | d4e2 | d4
B2 | dde2d2 | d2c2B2
d2AAA2 | B2GGG2
A2D2D2 | G4B2 | A2AAA2 | G4z2

